src/img/projects/java.svg

<?xml version="1.0" encoding="UTF-8"?>
<svg width="90px" height="90px" viewBox="0 0 90 90" version="1.1" xmlns="http://www.w3.org/2000/svg" xmlns:xlink="http://www.w3.org/1999/xlink">
    <!-- Generator: Sketch 41.2 (35397) - http://www.bohemiancoding.com/sketch -->
    <title>community/card/logo/java</title>
    <desc>Created with Sketch.</desc>
    <defs></defs>
    <g id="Symbols" stroke="none" stroke-width="1" fill="none" fill-rule="evenodd">
        <g id="community/card/logo/java" fill="#01ADFF">
            <path d="M37.5023205,61.7092144 C37.5023205,61.7092144 35.1602666,63.0706934 39.1709915,63.5301197 C44.0306346,64.0842494 46.5139035,64.0044493 51.8675958,62.9937385 C51.8675958,62.9937385 53.2779829,63.8749266 55.2442772,64.6381081 C43.2388264,69.775256 28.073468,64.3404497 37.5023205,61.7092144 Z M36.034552,55.0043809 C36.034552,55.0043809 33.4073549,56.9470863 37.4210642,57.3613965 C42.6126508,57.8966939 46.7110077,57.9405907 53.8068951,56.576673 C53.8068951,56.576673 54.7860405,57.5700419 56.3280113,58.1129264 C41.8150095,62.3527635 25.6504291,58.4464881 36.034552,55.0043809 Z M48.4011119,43.6292774 C51.3607952,47.0319588 47.6250395,50.0914591 47.6250395,50.0914591 C47.6250395,50.0914591 55.1357546,46.219732 51.6871769,41.3689974 C48.4651403,36.847489 45.994894,34.6014348 59.3682726,26.8554065 C59.3684082,26.8554065 38.375385,32.0906448 48.4011119,43.6292774 Z M64.2790569,66.6692846 C64.2790569,66.6692846 66.0128415,68.0967443 62.3694657,69.2006682 C55.4415171,71.2964706 33.5290359,71.9286391 27.4428159,69.2845328 C25.256492,68.3334349 29.3583759,67.0151754 30.6489812,66.7367557 C31.9946617,66.446007 32.7630019,66.4991167 32.7630019,66.4991167 C30.329789,64.787818 17.0360389,69.860069 26.0112668,71.314761 C50.4870524,75.2771268 70.6269521,69.5300299 64.2790569,66.6692846 Z M38.6294636,48.056489 C38.6294636,48.056489 27.4848684,50.7010017 34.6830384,51.6621254 C37.7232997,52.068442 43.7803543,51.974958 49.426515,51.5018478 C54.0395405,51.1151764 58.6689799,50.2881819 58.6689799,50.2881819 C58.6689799,50.2881819 57.0435823,50.9845698 55.8667901,51.7866352 C44.5473379,54.7601032 22.6843702,53.3753209 28.9793606,50.3353303 C34.3006318,47.7642499 38.6294636,48.056489 38.6294636,48.056489 Z M58.6228578,59.2171212 C70.1286976,53.2472885 64.8082404,47.5096754 61.0948675,48.2824763 C60.1868045,48.4717475 59.7794377,48.6356832 59.7794377,48.6356832 C59.7794377,48.6356832 60.1177569,48.1063471 60.7619744,47.8785985 C68.1082777,45.3003374 73.7567446,55.4854846 58.3929255,59.5192506 C58.3927898,59.5192506 58.5695461,59.3593794 58.6228578,59.2171212 Z M51.6873126,14.3450824 C51.6873126,14.3450824 58.0579975,20.7114768 45.6430094,30.4984365 C35.6870083,38.35231 43.3729875,42.8287023 45.6394824,47.9457985 C39.8274177,42.7089344 35.5643777,38.0982775 38.4238132,33.8077693 C42.6228248,27.5106072 54.2571283,24.4565263 51.6873126,14.3450824 Z M39.7606763,75.3991979 C50.8024463,76.1042568 67.7630401,75.0068362 68.1644382,69.7881269 C68.1644382,69.7881269 67.3928423,71.7664647 59.0382281,73.3361826 C49.6129026,75.1084492 37.9852462,74.902107 31.0914822,73.7652606 C31.0914822,73.7652606 32.5037684,74.9327264 39.7606763,75.3991979 Z" id="java"></path>
        </g>
    </g>
</svg>

<svg width="90" height="90" viewBox="0 0 90 90" xmlns="http://www.w3.org/2000/svg"><title>community/card/logo/java</title><path d="M37.502 61.71s-2.342 1.36 1.669 1.82c4.86.554 7.343.474 12.697-.536 0 0 1.41.88 3.376 1.644-12.005 5.137-27.17-.298-17.742-2.929zm-1.467-6.706s-2.628 1.943 1.386 2.357c5.192.536 9.29.58 16.386-.784 0 0 .979.993 2.521 1.536-14.513 4.24-30.678.333-20.293-3.109zM48.4 43.63c2.96 3.403-.776 6.462-.776 6.462s7.51-3.871 4.062-8.722c-3.222-4.522-5.692-6.768 7.681-14.514 0 0-20.993 5.236-10.967 16.774zM64.28 66.67s1.734 1.428-1.91 2.532c-6.927 2.095-28.84 2.728-34.926.084-2.187-.952 1.915-2.27 3.206-2.548 1.346-.291 2.114-.238 2.114-.238-2.433-1.711-15.727 3.361-6.752 4.816 24.476 3.962 44.616-1.785 38.268-4.646zM38.63 48.056s-11.144 2.645-3.946 3.606c3.04.406 9.097.313 14.744-.16 4.613-.387 9.242-1.214 9.242-1.214s-1.625.697-2.802 1.499c-11.32 2.973-33.183 1.588-26.888-1.452 5.322-2.57 9.65-2.279 9.65-2.279zm19.994 11.161c11.506-5.97 6.185-11.707 2.472-10.935-.908.19-1.316.354-1.316.354s.339-.53.983-.757c7.346-2.579 12.995 7.606-2.37 11.64 0 0 .178-.16.23-.302zm-6.936-44.872s6.371 6.366-6.044 16.153c-9.956 7.854-2.27 12.33-.004 17.448-5.812-5.237-10.075-9.848-7.215-14.138 4.199-6.297 15.833-9.351 13.263-19.463zM39.761 75.4c11.041.705 28.002-.392 28.403-5.61 0 0-.771 1.977-9.126 3.547-9.425 1.772-21.053 1.566-27.947.43 0 0 1.413 1.167 8.67 1.633z" fill="#01ADFF" fill-rule="evenodd"/></svg>
